X: 37710
T: Soggy's
R: slip jig
M: 9/8
K: Dmajor
A2A fAe- edA|B2B e2f dBA|B2B e2e dfa|d'2b afe edB|
A2A fAe- edA|B2B e2f dBA|B2B e2e dfa|d'2b afe d3:|
G2-G Bcd dcB|c2-c Acd edc|d2a gaf aea|dcB ABc d3|
G2-G Bcd dcB|c2-c Acd edc|d2a gaf aea|dcB ABc d3:|

